public/images/sponsors/Meta.svg

<svg width="256" height="52" viewBox="0 0 256 52" fill="none" xmlns="http://www.w3.org/2000/svg">
<path d="M93.9697 1.81934L103.67 1.81934L120.164 31.6888L136.656 1.81934L146.147 1.81934L146.147 50.903L138.234 50.903L138.234 13.2839L123.77 39.3338L116.346 39.3338L101.883 13.2839L101.883 50.903L93.9697 50.903L93.9697 1.81934Z" fill="#D1D1D1"/>
<path d="M171.67 51.7808C168.005 51.7808 164.783 50.9686 162.006 49.344C159.229 47.7194 157.064 45.4707 155.51 42.5948C153.956 39.719 153.18 36.425 153.18 32.707C153.18 28.9442 153.938 25.6145 155.456 22.7147C156.974 19.818 159.08 17.5483 161.777 15.9118C164.473 14.2753 167.572 13.457 171.074 13.457C174.552 13.457 177.547 14.2813 180.055 15.9297C182.564 17.5782 184.496 19.8866 185.851 22.8551C187.205 25.8235 187.882 29.3056 187.882 33.3043L187.882 35.4784L161.022 35.4784C161.511 38.4707 162.719 40.8269 164.646 42.5441C166.573 44.2612 169.007 45.1213 171.948 45.1213C174.304 45.1213 176.336 44.7719 178.042 44.0701C179.745 43.3683 181.344 42.3052 182.838 40.8807L187.041 46.0351C182.862 49.8696 177.737 51.7868 171.668 51.7838L171.67 51.7808ZM177.451 22.6639C175.793 20.9707 173.621 20.1226 170.937 20.1226C168.321 20.1226 166.134 20.9886 164.372 22.7177C162.609 24.4468 161.493 26.7732 161.028 29.6938L180.288 29.6938C180.055 26.7015 179.109 24.3572 177.451 22.6639Z" fill="#D1D1D1"/>
<path d="M197.48 20.8246L190.196 20.8246L190.196 14.3383L197.48 14.3383L197.48 3.61133L205.113 3.61133L205.113 14.3383L216.179 14.3383L216.179 20.8246L205.113 20.8246L205.113 37.2675C205.113 40.003 205.581 41.9531 206.515 43.1237C207.449 44.2914 209.047 44.8767 211.311 44.8767C212.314 44.8767 213.167 44.8349 213.868 44.7542C214.569 44.6736 215.338 44.5631 216.179 44.4198L216.179 50.8345C215.222 51.1122 214.243 51.3242 213.256 51.4646C212.126 51.6318 210.983 51.7124 209.841 51.7095C201.6 51.7095 197.48 47.1971 197.48 38.1753L197.48 20.8217L197.48 20.8246Z" fill="#D1D1D1"/>
<path d="M255.96 50.9029L248.468 50.9029L248.468 45.7843C247.137 47.7015 245.443 49.1797 243.391 50.219C241.336 51.2582 239.003 51.7779 236.387 51.7808C233.166 51.7808 230.312 50.9566 227.827 49.3081C225.339 47.6597 223.386 45.393 221.963 42.5082C220.54 39.6204 219.827 36.3205 219.827 32.6025C219.827 28.8636 220.552 25.5547 221.999 22.6789C223.445 19.803 225.447 17.5483 228.003 15.9118C230.559 14.2753 233.494 13.457 236.811 13.457C239.308 13.457 241.551 13.9408 243.534 14.9114C245.492 15.8586 247.187 17.2728 248.471 19.0296L248.471 14.332L255.963 14.332L255.963 50.8999L255.96 50.9029ZM248.327 27.1345C247.51 25.053 246.219 23.4135 244.459 22.207C242.696 21.0035 240.659 20.4003 238.347 20.4003C235.078 20.4003 232.474 21.4993 230.538 23.6972C228.599 25.8952 227.63 28.8636 227.633 32.6025C227.633 36.3653 228.567 39.3457 230.434 41.5436C232.301 43.7416 234.833 44.8406 238.034 44.8406C240.39 44.8406 242.493 44.2313 244.336 43.0159C246.18 41.8005 247.51 40.1639 248.327 38.1063L248.327 27.1315L248.327 27.1345Z" fill="#D1D1D1"/>
<path d="M8.42415 34.2328C8.42415 37.2013 9.07439 39.4799 9.92447 40.8566C11.04 42.6633 12.7014 43.4278 14.3986 43.4278C16.585 43.4278 18.5864 42.8843 22.4401 37.5477C25.5273 33.2683 29.1662 27.2627 31.6151 23.4969L35.7611 17.1181C38.6425 12.6893 41.9742 7.76484 45.7981 4.4261C48.9181 1.70255 52.2856 0.188477 55.674 0.188477C61.3621 0.188477 66.7788 3.48839 70.9279 9.67909C75.4646 16.4581 77.6689 24.9961 77.6689 33.8088C77.6689 39.0468 76.6369 42.8962 74.883 45.9363C73.1888 48.8779 69.8839 51.8165 64.324 51.8165L64.324 43.4308C69.0845 43.4308 70.2716 39.0528 70.2716 34.0417C70.2716 26.9014 68.6073 18.9756 64.9444 13.3135C62.3435 9.29684 58.9759 6.84206 55.2684 6.84206C51.2595 6.84206 48.0322 9.87022 44.4081 15.2665C42.4813 18.1334 40.5007 21.6305 38.2816 25.5724L35.8357 29.9116C30.9231 38.6347 29.6793 40.6206 27.2215 43.8997C22.9144 49.6394 19.2396 51.8165 14.3986 51.8165C8.6568 51.8165 5.02678 49.3258 2.77778 45.575C0.943385 42.517 0.0396117 38.5063 0.0396117 33.9372L8.42415 34.2358L8.42415 34.2328Z" fill="#D1D1D1"/>
<path d="M6.64941 10.2704C10.4942 4.33651 16.0421 0.188477 22.4043 0.188477C26.088 0.188477 29.7539 1.28148 33.5778 4.40819C37.7626 7.82755 42.2218 13.4568 47.7846 22.7354L49.7801 26.0652C54.5973 34.0985 57.3354 38.2316 58.9401 40.1787C61.0012 42.6812 62.4479 43.4278 64.324 43.4278C69.0845 43.4278 70.2716 39.0498 70.2716 34.0387L77.6689 33.8058C77.6689 39.0439 76.6369 42.8933 74.883 45.9334C73.1888 48.8749 69.8839 51.8135 64.324 51.8135C60.87 51.8135 57.8067 51.0609 54.4213 47.8655C51.8203 45.4107 48.7779 41.0507 46.4364 37.1326L39.4747 25.4888C35.9819 19.6445 32.7784 15.2875 30.9231 13.3165C28.9276 11.1962 26.3625 8.63387 22.2701 8.63387C18.9563 8.63387 16.1435 10.9602 13.7901 14.52L6.64941 10.2734L6.64941 10.2704Z" fill="#D1D1D1"/>
<path d="M22.2701 8.62801C18.9563 8.62801 16.1435 10.9544 13.7901 14.5141C10.4614 19.5431 8.42414 27.0359 8.42414 34.23C8.42414 37.1984 9.07438 39.477 9.92446 40.8537L2.77479 45.5661C0.940395 42.5081 0.036621 38.4975 0.036621 33.9284C0.036621 25.6173 2.31544 16.9539 6.64641 10.2645C10.4912 4.33066 16.0391 0.182617 22.4013 0.182617L22.2671 8.62204L22.2701 8.62801Z" fill="#D1D1D1"/>
</svg>

<svg xmlns="http://www.w3.org/2000/svg" fill="none" viewBox="0 0 256 52">
  <path fill="#D1D1D1" d="M93.97 1.82h9.7l16.494 29.869 16.492-29.87h9.491v49.084h-7.913v-37.62l-14.464 26.05h-7.424l-14.463-26.05v37.62H93.97zm77.7 49.96q-5.498 0-9.664-2.436t-6.496-6.75q-2.33-4.311-2.33-9.887 0-5.644 2.276-9.992 2.276-4.347 6.321-6.803 4.044-2.455 9.297-2.455 5.218 0 8.981 2.473t5.796 6.925q2.031 4.451 2.031 10.45v2.173h-26.86q.733 4.49 3.624 7.066t7.302 2.577q3.535 0 6.094-1.05 2.555-1.054 4.796-3.19l4.203 5.154q-6.269 5.753-15.373 5.749zm5.781-29.116q-2.488-2.54-6.514-2.541-3.923 0-6.565 2.595-2.646 2.594-3.344 6.976h19.26q-.35-4.49-2.837-7.03m20.029-1.839h-7.284v-6.487h7.284V3.611h7.633v10.727h11.066v6.487h-11.066v16.443q0 4.101 1.402 5.856 1.4 1.752 4.796 1.753 1.505 0 2.557-.123a43 43 0 0 0 2.311-.334v6.414a21 21 0 0 1-2.923.63c-1.13.168-2.273.248-3.415.245q-12.361 0-12.361-13.534V20.822zm58.48 30.078h-7.492v-5.119a13.55 13.55 0 0 1-5.077 4.435q-3.081 1.559-7.004 1.562-4.832 0-8.56-2.473-3.73-2.472-5.864-6.8c-1.423-2.888-2.136-6.187-2.136-9.906q0-5.608 2.172-9.923 2.17-4.313 6.004-6.767t8.808-2.455q3.747 0 6.723 1.454a13.3 13.3 0 0 1 4.937 4.119v-4.698h7.492V50.9zm-7.633-23.768c-.817-2.082-2.108-3.722-3.868-4.928q-2.644-1.806-6.112-1.807-4.904 0-7.809 3.297-2.909 3.297-2.905 8.906 0 5.644 2.801 8.94 2.8 3.298 7.6 3.298 3.536-.001 6.302-1.825 2.766-1.823 3.991-4.91V27.131zM8.424 34.233c0 2.968.65 5.247 1.5 6.624 1.116 1.806 2.777 2.57 4.475 2.57 2.186 0 4.187-.543 8.041-5.88 3.087-4.279 6.726-10.284 9.175-14.05l4.146-6.379c2.881-4.429 6.213-9.353 10.037-12.692 3.12-2.723 6.488-4.238 9.876-4.238 5.688 0 11.105 3.3 15.254 9.491 4.537 6.78 6.74 15.317 6.74 24.13 0 5.238-1.031 9.087-2.785 12.127-1.694 2.942-5 5.88-10.559 5.88v-8.385c4.76 0 5.948-4.378 5.948-9.39 0-7.14-1.665-15.065-5.328-20.727-2.6-4.017-5.968-6.472-9.676-6.472-4.008 0-7.236 3.028-10.86 8.425-1.927 2.866-3.907 6.364-6.126 10.305l-2.446 4.34c-4.913 8.723-6.157 10.709-8.614 13.988-4.308 5.74-7.982 7.916-12.823 7.916-5.742 0-9.372-2.49-11.621-6.241C.943 42.517.04 38.506.04 33.937l8.384.299z"/>
  <path fill="#D1D1D1" d="M6.65 10.27C10.493 4.337 16.041.188 22.403.188c3.684 0 7.35 1.093 11.174 4.22 4.185 3.42 8.644 9.049 14.207 18.327l1.995 3.33c4.817 8.034 7.555 12.167 9.16 14.114 2.061 2.502 3.508 3.249 5.384 3.249 4.76 0 5.948-4.378 5.948-9.39l7.397-.232c0 5.238-1.032 9.087-2.786 12.127-1.694 2.942-5 5.88-10.559 5.88-3.454 0-6.517-.752-9.903-3.948-2.6-2.454-5.643-6.814-7.985-10.732l-6.961-11.644c-3.493-5.844-6.697-10.202-8.552-12.173-1.995-2.12-4.56-4.682-8.653-4.682-3.314 0-6.126 2.326-8.48 5.886l-7.14-4.247z"/>
  <path fill="#D1D1D1" d="M22.27 8.628c-3.314 0-6.126 2.326-8.48 5.886-3.329 5.03-5.366 12.522-5.366 19.716 0 2.968.65 5.247 1.5 6.624l-7.15 4.712C.94 42.508.038 38.498.038 33.928c0-8.31 2.278-16.974 6.61-23.663C10.49 4.33 16.038.182 22.4.182l-.134 8.439z"/>
</svg>
